website/src/static/table/columnsresizing.svg

<svg width="144" height="80" viewBox="0 0 144 80" fill="none" xmlns="http://www.w3.org/2000/svg">
<g clip-path="url(#clip0_430_19405)">
<g clip-path="url(#clip1_430_19405)">
<mask id="path-3-inside-1_430_19405" fill="white">
<path d="M76 0H144V80H76V0Z"/>
</mask>
<path d="M76 0H144V80H76V0Z" fill="#F4F5F9"/>
<path d="M144 79H76V81H144V79Z" fill="#E0E1E9" mask="url(#path-3-inside-1_430_19405)"/>
<path d="M102.028 34.4062V33.2727H108.783V34.4062H106.06V42H104.747V34.4062H102.028ZM110.275 42V33.2727H111.592V37.0653H115.943V33.2727H117.264V42H115.943V38.1946H111.592V42H110.275Z" fill="#191B23"/>
</g>
<g clip-path="url(#clip2_430_19405)">
<mask id="path-6-inside-2_430_19405" fill="white">
<path d="M0 0H76V80H0V0Z"/>
</mask>
<mask id="path-8-inside-3_430_19405" fill="white">
<path d="M0 0H76V80H0V0Z"/>
</mask>
<path d="M0 0H76V80H0V0Z" fill="#F4F5F9"/>
<path d="M76 80V81H77V80H76ZM75 0V80H77V0H75ZM76 79H0V81H76V79Z" fill="#E0E1E9" mask="url(#path-8-inside-3_430_19405)"/>
<path d="M30.0284 34.4062V33.2727H36.7827V34.4062H34.0597V42H32.7472V34.4062H30.0284ZM38.2752 42V33.2727H39.592V37.0653H43.9428V33.2727H45.2638V42H43.9428V38.1946H39.592V42H38.2752Z" fill="#191B23"/>
</g>
<path d="M75 0V80H77V0H75Z" fill="#6C6E79" mask="url(#path-6-inside-2_430_19405)"/>
<g filter="url(#filter0_d_430_19405)">
<path d="M74 42V48.01H72.98V44.54L67 50.01L72.98 55.47V51.99H74V58H74.02H77.98V51.99H79.04V55.46L85 49.99L79.04 44.53V48H77.98V42H74Z" fill="white"/>
<path d="M83.3402 49.99L80.0202 46.77V49.02H77.0002V43.06H76.9802V43.04H75.0402V49.04H71.9802V46.76L68.6602 50.01L71.9802 53.23V50.98H75.0402V56.98H75.0602H76.9802H77.0002V50.98H80.0202V53.24L83.3402 49.99Z" fill="#191B23"/>
</g>
</g>
<rect x="0.5" y="0.5" width="143" height="79" rx="5.5" stroke="#E0E1E9"/>
<defs>
<filter id="filter0_d_430_19405" x="65.2" y="41.2" width="21.6" height="19.6" filterUnits="userSpaceOnUse" color-interpolation-filters="sRGB">
<feFlood flood-opacity="0" result="BackgroundImageFix"/>
<feColorMatrix in="SourceAlpha" type="matrix" values="0 0 0 0 0 0 0 0 0 0 0 0 0 0 0 0 0 0 127 0" result="hardAlpha"/>
<feOffset dy="1"/>
<feGaussianBlur stdDeviation="0.9"/>
<feColorMatrix type="matrix" values="0 0 0 0 0 0 0 0 0 0 0 0 0 0 0 0 0 0 0.65 0"/>
<feBlend mode="normal" in2="BackgroundImageFix" result="effect1_dropShadow_430_19405"/>
<feBlend mode="normal" in="SourceGraphic" in2="effect1_dropShadow_430_19405" result="shape"/>
</filter>
<clipPath id="clip0_430_19405">
<rect width="144" height="80" rx="6" fill="white"/>
</clipPath>
<clipPath id="clip1_430_19405">
<rect width="68" height="80" fill="white" transform="translate(76)"/>
</clipPath>
<clipPath id="clip2_430_19405">
<path d="M0 0H76V80H0V0Z" fill="white"/>
</clipPath>
</defs>
</svg>

<svg xmlns="http://www.w3.org/2000/svg" width="144" height="80" fill="none"><g clip-path="url(#a)"><mask id="b" fill="#fff"><path d="M76 0h68v80H76V0Z"/></mask><path fill="#F4F5F9" d="M76 0h68v80H76V0Z"/><path fill="#191B23" d="M115.528 34.406v-1.133h6.755v1.133h-2.723V42h-1.313v-7.594h-2.719ZM123.775 42v-8.727h1.317v3.792h4.351v-3.792h1.321V42h-1.321v-3.805h-4.351V42h-1.317Z"/><path fill="#E0E1E9" d="M144 79H76v2h68v-2Z" mask="url(#b)"/></g><g clip-path="url(#c)"><mask id="d" fill="#fff"><path d="M0 0h76v80H0V0Z"/></mask><path fill="#F4F5F9" d="M0 0h76v80H0V0Z"/><path fill="#191B23" d="M12.528 34.406v-1.133h6.755v1.133H16.56V42h-1.313v-7.594h-2.719ZM20.775 42v-8.727h1.317v3.792h4.35v-3.792h1.322V42h-1.321v-3.805h-4.351V42h-1.317Z"/><path fill="#E0E1E9" d="M76 80v1h1v-1h-1ZM75 0v80h2V0h-2Zm1 79H0v2h76v-2Z" mask="url(#d)"/></g><path fill="#6C6E79" d="M75 0v80h2V0h-2Z" mask="url(#path-4-inside-2_756_52421)"/><g filter="url(#e)"><path fill="#fff" d="M74 42v6.01h-1.02v-3.47L67 50.01l5.98 5.46v-3.48H74V58h3.98v-6.01h1.06v3.47L85 49.99l-5.96-5.46V48h-1.06v-6H74Z"/><path fill="#191B23" d="m83.34 49.99-3.32-3.22v2.25H77v-5.96h-.02v-.02h-1.94v6h-3.06v-2.28l-3.32 3.25 3.32 3.22v-2.25h3.06v6H77v-6h3.02v2.26l3.32-3.25Z"/></g><defs><clipPath id="a"><path fill="#fff" d="M76 0h68v80H76z"/></clipPath><clipPath id="c"><path fill="#fff" d="M0 0h76v80H0V0Z"/></clipPath><filter id="e" width="21.6" height="19.6" x="65.2" y="41.2" color-interpolation-filters="sRGB" filterUnits="userSpaceOnUse"><feFlood flood-opacity="0" result="BackgroundImageFix"/><feColorMatrix in="SourceAlpha" result="hardAlpha" values="0 0 0 0 0 0 0 0 0 0 0 0 0 0 0 0 0 0 127 0"/><feOffset dy="1"/><feGaussianBlur stdDeviation=".9"/><feColorMatrix values="0 0 0 0 0 0 0 0 0 0 0 0 0 0 0 0 0 0 0.65 0"/><feBlend in2="BackgroundImageFix" result="effect1_dropShadow_756_52421"/><feBlend in="SourceGraphic" in2="effect1_dropShadow_756_52421" result="shape"/></filter></defs></svg>
